digital/Imbassy-X-Files/65ef0811cc67439994568a45/65ef0811cc6743999456944c_Facebook.svg

<svg fill="none" height="47" viewBox="0 0 48 47" width="48" xmlns="http://www.w3.org/2000/svg"><path d="m39.311 23.4776c0-8.385-6.7665-15.19047-15.1125-15.19047-2.9027-.00451-5.7455.82483-8.1903 2.38937-2.4449 1.5645-4.3889 3.7984-5.6009 6.4359-1.21188 2.6375-1.64071 5.5676-1.23544 8.4417.40528 2.8742 1.62764 5.5715 3.52164 7.771 2.3409 2.7435 5.5837 4.562 9.1455 5.1285v-10.7055h-3.705v-4.29h3.705v-3.159c0-3.666 2.223-5.655 5.46-5.655 1.56 0 2.9055.117 3.2954.156v3.8415h-2.2424c-1.7745 0-2.145.8385-2.145 2.0865v2.73h4.2315l-.546 4.29h-3.666v10.764c3.6268-.5042 6.9482-2.3048 9.3501-5.0687 2.4018-2.7639 3.7215-6.3041 3.7149-9.9658" fill="#2a2e32"/></svg>

<svg width="48" height="47" viewBox="0 0 48 47" fill="none" xmlns="http://www.w3.org/2000/svg">
<path d="M39.311 23.4776C39.311 15.0926 32.5445 8.28713 24.1985 8.28713C21.2958 8.28262 18.453 9.11196 16.0082 10.6765C13.5633 12.241 11.6193 14.4749 10.4073 17.1124C9.19542 19.7499 8.76659 22.68 9.17186 25.5541C9.57714 28.4283 10.7995 31.1256 12.6935 33.3251C15.0344 36.0686 18.2772 37.8871 21.839 38.4536V27.7481H18.134V23.4581H21.839V20.2991C21.839 16.6331 24.062 14.6441 27.299 14.6441C28.859 14.6441 30.2045 14.7611 30.5944 14.8001V18.6416H28.352C26.5775 18.6416 26.207 19.4801 26.207 20.7281V23.4581H30.4385L29.8925 27.7481H26.2265V38.5121C29.8533 38.0079 33.1747 36.2073 35.5766 33.4434C37.9784 30.6795 39.2981 27.1393 39.2915 23.4776" fill="#2A2E32"/>
</svg>
